X: 305543
M: 2/4
L: 1/16
K: F
|:\
f2cA f2cA | fgaf gedc |
f2cA f2cA | fgaf g2g2 |\
affa geeg | fddf ecce |\
dBBd cAAc | BGFE F2F2 |]


